dist/icons/svgs/arrow-right-from-bracket-outline.svg

<svg xmlns="http://www.w3.org/2000/svg" width="24" height="24" fill="currentcolor" class="icon-arrow-right-from-bracket-outline" viewBox="0 0 24 24">
  <path d="M21.7266 12.6641L16.7266 17.6641C16.3359 18.0547 15.75 18.0547 15.3984 17.6641C15.0078 17.3125 15.0078 16.7266 15.3984 16.3359L18.7969 12.9375H9.1875C8.64062 12.9375 8.25 12.5469 8.25 12C8.25 11.4922 8.64062 11.0625 9.1875 11.0625H18.7969L15.3984 7.66406C15.0078 7.3125 15.0078 6.72656 15.3984 6.33594C15.75 5.98438 16.3359 5.98438 16.7266 6.33594L21.7266 11.375C22.0781 11.7266 22.0781 12.3125 21.7266 12.6641ZM8.5625 5.125H5.4375C4.53906 5.125 3.875 5.82812 3.875 6.6875V17.3125C3.875 18.2109 4.53906 18.875 5.4375 18.875H8.5625C9.07031 18.875 9.5 19.3047 9.5 19.8125C9.5 20.3594 9.07031 20.75 8.5625 20.75H5.4375C3.52344 20.75 2 19.2266 2 17.3125V6.6875C2 4.8125 3.52344 3.25 5.4375 3.25H8.5625C9.07031 3.25 9.5 3.67969 9.5 4.1875C9.5 4.73438 9.07031 5.125 8.5625 5.125Z"/>
</svg>

<svg xmlns="http://www.w3.org/2000/svg" width="24" height="24" fill="currentColor" class="icon-arrow-right-from-bracket-outline" viewBox="0 0 24 24">
  <path d="m21.727 12.664-5 5c-.391.39-.977.39-1.329 0-.39-.352-.39-.937 0-1.328l3.399-3.398h-9.61c-.546 0-.937-.391-.937-.938 0-.508.39-.937.938-.937h9.609l-3.399-3.399c-.39-.351-.39-.937 0-1.328.352-.352.938-.352 1.329 0l5 5.039a.92.92 0 0 1 0 1.29M8.563 5.125H5.437c-.898 0-1.562.703-1.562 1.563v10.625c0 .898.664 1.562 1.563 1.562h3.125a.95.95 0 0 1 .937.938c0 .546-.43.937-.937.937H5.437A3.42 3.42 0 0 1 2 17.313V6.688A3.443 3.443 0 0 1 5.438 3.25h3.125a.95.95 0 0 1 .937.938c0 .546-.43.937-.937.937"/>
</svg>
